outputs/icons/social/group_round.svg

<svg xmlns="http://www.w3.org/2000/svg" width="1200" height="1200" fill="none"><g clip-path="url(#a)"><path fill="#000" d="M800 550c83 0 149.5-67 149.5-150S883 250 800 250s-150 67-150 150 67 150 150 150m-400 0c83 0 149.5-67 149.5-150S483 250 400 250s-150 67-150 150 67 150 150 150m0 100c-116.5 0-350 58.5-350 175v75c0 27.5 22.5 50 50 50h600c27.5 0 50-22.5 50-50v-75c0-116.5-233.5-175-350-175m400 0c-14.5 0-31 1-48.5 2.5 1 .5 1.5 1.5 2 2 57 41.5 96.5 97 96.5 170.5v75c0 17.5-3.5 34.5-9 50h259c27.5 0 50-22.5 50-50v-75c0-116.5-233.5-175-350-175"/></g><defs><clipPath id="a"><path fill="#fff" d="M0 0h1200v1200H0z"/></clipPath></defs></svg>

<svg width="1200" height="1200" viewBox="0 0 1200 1200" fill="none" xmlns="http://www.w3.org/2000/svg"><g clip-path="url(#clip0_231_5368)"><path d="M800 550C883 550 949.5 483 949.5 400C949.5 317 883 250 800 250C717 250 650 317 650 400C650 483 717 550 800 550ZM400 550C483 550 549.5 483 549.5 400C549.5 317 483 250 400 250C317 250 250 317 250 400C250 483 317 550 400 550ZM400 650C283.5 650 50 708.5 50 825V900C50 927.5 72.5 950 100 950H700C727.5 950 750 927.5 750 900V825C750 708.5 516.5 650 400 650ZM800 650C785.5 650 769 651 751.5 652.5C752.5 653 753 654 753.5 654.5C810.5 696 850 751.5 850 825V900C850 917.5 846.5 934.5 841 950H1100C1127.5 950 1150 927.5 1150 900V825C1150 708.5 916.5 650 800 650Z" fill="#1D1E23"/></g><defs><clipPath id="clip0_231_5368"><path width="24" fill="white" d="M0 0H1200V1200H0V0z"/></clipPath></defs></svg>
